_includes/icons/ios-pdf-2.svg

<svg fill="#666" height="50" viewBox="0 0 50 50" width="50" xmlns="http://www.w3.org/2000/svg"><path d="m7 2v46h36v-32.589844l-13.816406-13.410156zm2 2h19v13h13v29h-32zm21 1.578125 9.707031 9.421875h-9.707031zm-6.230469 14.296875c-.75 0-1.527343.425781-1.867187 1.058594-.34375.628906-.367188 1.304687-.28125 2.007812.132812 1.109375.636719 2.363282 1.289062 3.648438-.324218 1.09375-.480468 2.046875-.96875 3.214844-.621093 1.488281-1.382812 2.667968-2.113281 3.90625-.953125.445312-2.15625.84375-2.859375 1.304687-.789062.519531-1.414062.984375-1.78125 1.722656-.179687.367188-.273437.890625-.09375 1.363282.179688.472656.554688.78125.941406.980468.820313.433594 1.765625.164063 2.449219-.296875.683594-.460937 1.292969-1.136718 1.90625-1.960937.308594-.417969.554688-1.09375.859375-1.582031.980469-.433594 1.675781-.882813 2.789063-1.265625 1.503906-.519532 2.84375-.738282 4.25-1.042969 1.175781.792969 2.425781 1.410156 3.792968 1.410156.773438 0 1.371094-.035156 1.953125-.351562.585938-.316407.9375-1.078125.9375-1.660157 0-.472656-.207031-.976562-.535156-1.300781-.332031-.324219-.722656-.496094-1.125-.605469-.796875-.214843-1.703125-.199218-2.746094-.09375-.550781.058594-1.289062.351563-1.902343.464844-.082032-.0625-.160157-.089844-.242188-.160156-1.246094-1.074219-2.414062-2.558594-3.28125-4.035156-.050781-.089844-.042969-.152344-.09375-.242188.210938-.789062.625-1.707031.71875-2.398437.128906-.957032.15625-1.792969-.074219-2.558594-.117187-.382813-.3125-.769531-.652343-1.066406-.339844-.296875-.820313-.460938-1.269532-.460938zm-.082031 1.992188c.011719 0 .03125.007812.046875.011718.003906.007813.011719.003907.042969.101563.054687.183594.023437.703125.003906 1.164062-.023437-.117187-.160156-.335937-.171875-.441406-.058594-.464844.015625-.761719.046875-.8125.007813-.019531.019531-.023437.03125-.023437zm.605469 7.015625c.617187.886718 1.300781 1.714843 2.066406 2.476562-1.023437.273438-1.941406.371094-2.972656.726563-.21875.074218-.34375.179687-.558594.257812.304688-.636719.683594-1.109375.957031-1.765625.25-.597656.292969-1.101562.507813-1.695312z"/></svg>

<svg xmlns="http://www.w3.org/2000/svg" viewBox="0 0 50 50" width="50" height="50" fill="#666"><path d="M 7 2 L 7 48 L 43 48 L 43 15.410156 L 29.183594 2 Z M 9 4 L 28 4 L 28 17 L 41 17 L 41 46 L 9 46 Z M 30 5.578125 L 39.707031 15 L 30 15 Z M 23.769531 19.875 C 23.019531 19.875 22.242188 20.300781 21.902344 20.933594 C 21.558594 21.5625 21.535156 22.238281 21.621094 22.941406 C 21.753906 24.050781 22.257813 25.304688 22.910156 26.589844 C 22.585938 27.683594 22.429688 28.636719 21.941406 29.804688 C 21.320313 31.292969 20.558594 32.472656 19.828125 33.710938 C 18.875 34.15625 17.671875 34.554688 16.96875 35.015625 C 16.179688 35.535156 15.554688 36 15.1875 36.738281 C 15.007813 37.105469 14.914063 37.628906 15.09375 38.101563 C 15.273438 38.574219 15.648438 38.882813 16.035156 39.082031 C 16.855469 39.515625 17.800781 39.246094 18.484375 38.785156 C 19.167969 38.324219 19.777344 37.648438 20.390625 36.824219 C 20.699219 36.40625 20.945313 35.730469 21.25 35.242188 C 22.230469 34.808594 22.925781 34.359375 24.039063 33.976563 C 25.542969 33.457031 26.882813 33.238281 28.289063 32.933594 C 29.464844 33.726563 30.714844 34.34375 32.082031 34.34375 C 32.855469 34.34375 33.453125 34.308594 34.035156 33.992188 C 34.621094 33.675781 34.972656 32.914063 34.972656 32.332031 C 34.972656 31.859375 34.765625 31.355469 34.4375 31.03125 C 34.105469 30.707031 33.714844 30.535156 33.3125 30.425781 C 32.515625 30.210938 31.609375 30.226563 30.566406 30.332031 C 30.015625 30.390625 29.277344 30.683594 28.664063 30.796875 C 28.582031 30.734375 28.503906 30.707031 28.421875 30.636719 C 27.175781 29.5625 26.007813 28.078125 25.140625 26.601563 C 25.089844 26.511719 25.097656 26.449219 25.046875 26.359375 C 25.257813 25.570313 25.671875 24.652344 25.765625 23.960938 C 25.894531 23.003906 25.921875 22.167969 25.691406 21.402344 C 25.574219 21.019531 25.378906 20.632813 25.039063 20.335938 C 24.699219 20.039063 24.21875 19.875 23.769531 19.875 Z M 23.6875 21.867188 C 23.699219 21.867188 23.71875 21.875 23.734375 21.878906 C 23.738281 21.886719 23.746094 21.882813 23.777344 21.980469 C 23.832031 22.164063 23.800781 22.683594 23.78125 23.144531 C 23.757813 23.027344 23.621094 22.808594 23.609375 22.703125 C 23.550781 22.238281 23.625 21.941406 23.65625 21.890625 C 23.664063 21.871094 23.675781 21.867188 23.6875 21.867188 Z M 24.292969 28.882813 C 24.910156 29.769531 25.59375 30.597656 26.359375 31.359375 C 25.335938 31.632813 24.417969 31.730469 23.386719 32.085938 C 23.167969 32.160156 23.042969 32.265625 22.828125 32.34375 C 23.132813 31.707031 23.511719 31.234375 23.785156 30.578125 C 24.035156 29.980469 24.078125 29.476563 24.292969 28.882813 Z"/></svg>
